X: 10681
Q: "Moderato"
M: 2/4
L: 1/16
K: Cm
d2 =B2 G2 zG | c2 c2 d2 g2 | e2 c2 c2 "^Joe"d2 |
e2 e2 f2 b2 | g2 e2 e4 | "^Crack"g2 g f e2 z"^Joe"e |
f2 f e d2 z"^Crack"d | e2 e d c2 d2 | e e f2 d2 G "^Joe"G |
g2 g2 g2 g2 | g2 g a g f e d | c2 d2 e2 f2 | "^Both"g2 g a g f e d |
e2 c2 c2 zg | c'e'd'c' =bd'gb | c'e'd'c' =bd'gd' | c'2ga gfed | e2c2c2 |]



